nova/resources/svg/fluent/sign-out.svg

<svg width="24" height="24" viewBox="0 0 24 24" fill="none" xmlns="http://www.w3.org/2000/svg">
<path d="M12 4.35417V4.99998L13.7453 5C14.1245 5 14.4381 5.28152 14.4883 5.64711L14.4953 5.74876L14.502 10H13.002L12.9965 6.5L12 6.49998L12.0005 11.0049L13.002 11.004L13.003 11H14.504L14.503 11.004H19.442L17.7196 9.28024C17.4534 9.01393 17.4292 8.59726 17.6471 8.30368L17.7198 8.21958C17.9861 7.95336 18.4027 7.92922 18.6963 8.14713L18.7804 8.21976L21.777 11.2174C22.043 11.4835 22.0674 11.8997 21.85 12.1932L21.7775 12.2774L18.7809 15.2808C18.4884 15.574 18.0135 15.5746 17.7203 15.282C17.4537 15.0161 17.429 14.5994 17.6465 14.3056L17.7191 14.2214L19.432 12.504L12.0005 12.5049L12 17.001L13.0139 17.0014L13.007 13.5H14.508L14.5152 17.7502C14.5158 18.1303 14.2335 18.4448 13.867 18.4946L13.7652 18.5014L12 18.501V19.25C12 19.7164 11.5788 20.0697 11.1196 19.9886L2.61955 18.4873C2.26121 18.424 2 18.1126 2 17.7487V5.75C2 5.38269 2.26601 5.06943 2.62847 5.00991L11.1285 3.61408C11.5851 3.53909 12 3.89144 12 4.35417ZM10.5 5.23737L3.5 6.38688V17.1196L10.5 18.3559V5.23737ZM8.50215 11.5C9.05562 11.5 9.5043 11.9487 9.5043 12.5021C9.5043 13.0556 9.05562 13.5043 8.50215 13.5043C7.94868 13.5043 7.5 13.0556 7.5 12.5021C7.5 11.9487 7.94868 11.5 8.50215 11.5Z" fill="currentColor"/>
</svg>

<svg viewBox="0 0 24 24" fill="none" xmlns="http://www.w3.org/2000/svg"><path d="M12 4.354V5h1.745a.75.75 0 01.743.647l.007.102.007 4.251h-1.5l-.006-3.5H12v4.505l1.002-.001.001-.004h1.501l-.001.004h4.939L17.72 9.28a.75.75 0 01-.073-.976l.073-.084a.75.75 0 01.976-.073l.084.073 2.997 2.997a.75.75 0 01.073.976l-.073.084-2.996 3.004a.75.75 0 01-1.134-.975l.072-.085 1.713-1.717h-7.431L12 17.002h1.014l-.007-3.501h1.501l.007 4.25a.75.75 0 01-.648.745l-.102.006H12v.749a.75.75 0 01-.88.739l-8.5-1.502A.75.75 0 012 17.75V5.75a.75.75 0 01.628-.74l8.5-1.396a.75.75 0 01.872.74zm-1.5.883l-7 1.15V17.12l7 1.236V5.237zM8.502 11.5a1.002 1.002 0 110 2.004 1.002 1.002 0 010-2.004z" fill="currentColor"/></svg>
